X: 18247
T: Humours Of Lissadell, The
R: reel
M: 4/4
K: Edorian
gf|:eB~B2 eBdB|AF~F2 EDBA|BE~E2 BEGE|FB~B2 FBdf|
eB~B2 eBdB|AF~F2 EDBA|BE~E2 ~E2BA|(3Bcd ed e2gf:|
|:eB~B2 A2FA|df~f2 ~e2 ef|df~f2 dfbf|afdf ~e2ed|
(3Bcd fd BcdB|AF~F2 ABde|~f2ef dfbf|afdf e2gf:|

